packages/bezier-icons/icons/skip.svg

<svg width="24" height="24" viewBox="0 0 24 24" fill="none" xmlns="http://www.w3.org/2000/svg">
<path fill-rule="evenodd" clip-rule="evenodd" d="M15.3 4.19998C15.3 3.31632 16.0164 2.59998 16.9 2.59998H19.1C19.9837 2.59998 20.7 3.31632 20.7 4.19998V19.8C20.7 20.6836 19.9837 21.4 19.1 21.4H16.9C16.0164 21.4 15.3 20.6836 15.3 19.8V14L7.30005 20C5.65196 21.236 3.30005 20.0601 3.30005 18V5.99998C3.30005 3.93986 5.65196 2.76391 7.30005 3.99998L15.3 9.99997V4.19998ZM17.3 4.59998V19.4H18.7V4.59998H17.3ZM6.10005 5.59998C5.77043 5.35276 5.30005 5.58795 5.30005 5.99998V18C5.30005 18.412 5.77043 18.6472 6.10005 18.4L14.1 12.4C14.3667 12.2 14.3667 11.8 14.1 11.6L6.10005 5.59998Z" fill="#313234"/>
</svg>

<svg xmlns="http://www.w3.org/2000/svg" width="24" height="24" fill="none" viewBox="0 0 24 24"><path fill="#313234" fill-rule="evenodd" d="M15.3 4.2a1.6 1.6 0 0 1 1.6-1.6h2.2a1.6 1.6 0 0 1 1.6 1.6v15.6a1.6 1.6 0 0 1-1.6 1.6h-2.2a1.6 1.6 0 0 1-1.6-1.6V14l-8 6c-1.648 1.236-4 .06-4-2V6c0-2.06 2.352-3.236 4-2l8 6zm2 .4v14.8h1.4V4.6zm-11.2 1a.5.5 0 0 0-.8.4v12a.5.5 0 0 0 .8.4l8-6a.5.5 0 0 0 0-.8z" clip-rule="evenodd"/></svg>
